SVG_Azure_Grouped/Compute/Proximity Placement Group.svg

<?xml version="1.0" encoding="UTF-8" standalone="no"?>
<!-- Generated by Microsoft Visio, SVG Export Proximity Placement Group.svg Page-1 -->

<svg
   xmlns:dc="http://purl.org/dc/elements/1.1/"
   xmlns:cc="http://creativecommons.org/ns#"
   xmlns:rdf="http://www.w3.org/1999/02/22-rdf-syntax-ns#"
   xmlns:svg="http://www.w3.org/2000/svg"
   xmlns="http://www.w3.org/2000/svg"
   xmlns:sodipodi="http://sodipodi.sourceforge.net/DTD/sodipodi-0.dtd"
   xmlns:inkscape="http://www.inkscape.org/namespaces/inkscape"
   width="0.7874276in"
   height="0.74796015in"
   viewBox="0 0 56.694696 53.853272"
   xml:space="preserve"
   class="st6"
   version="1.1"
   id="svg74"
   sodipodi:docname="Proximity Placement Group.svg"
   style="font-size:12px;overflow:visible;color-interpolation-filters:sRGB;fill:none;fill-rule:evenodd;stroke-linecap:square;stroke-miterlimit:3"
   inkscape:version="0.92.5 (2060ec1f9f, 2020-04-08)"><metadata
   id="metadata80"><rdf:RDF><cc:Work
       rdf:about=""><dc:format>image/svg+xml</dc:format><dc:type
         rdf:resource="http://purl.org/dc/dcmitype/StillImage" /></cc:Work></rdf:RDF></metadata><defs
   id="defs78" /><sodipodi:namedview
   pagecolor="#ffffff"
   bordercolor="#666666"
   borderopacity="1"
   objecttolerance="10"
   gridtolerance="10"
   guidetolerance="10"
   inkscape:pageopacity="0"
   inkscape:pageshadow="2"
   inkscape:window-width="640"
   inkscape:window-height="480"
   id="namedview76"
   showgrid="false"
   inkscape:zoom="1.4523234"
   inkscape:cx="37.795998"
   inkscape:cy="35.891822"
   inkscape:window-x="0"
   inkscape:window-y="0"
   inkscape:window-maximized="0"
   inkscape:current-layer="svg74" />
	<style
   type="text/css"
   id="style2">
	<![CDATA[
		.st1 {fill:#949494;stroke:none;stroke-linecap:butt;stroke-width:34}
		.st2 {fill:#a3a3a3;stroke:none;stroke-linecap:butt;stroke-width:34}
		.st3 {fill:#999999;stroke:none;stroke-linecap:butt;stroke-width:34}
		.st4 {fill:#003067;stroke:none;stroke-linecap:butt;stroke-width:34}
		.st5 {fill:#50e6ff;stroke:none;stroke-linecap:butt;stroke-width:34}
		.st6 {fill:none;fill-rule:evenodd;font-size:12px;overflow:visible;stroke-linecap:square;stroke-miterlimit:3}
	]]>
	</style>

	<g
   id="g72"
   transform="translate(-33.999691,-34.002665)">
		<title
   id="title4">Page-1</title>
		<g
   id="group11206-1"
   transform="translate(34,-34.0157)">
			<title
   id="title6">Proximity Placement Group.11206</title>
			<g
   id="group11207-2">
				<title
   id="title8"> ProximityPlacementGroups</title>
				<g
   id="shape11208-3"
   transform="translate(0.0105707,-0.0303115)">
					<title
   id="title10">Sheet.11208</title>
					<path
   d="m 0,115.43 a 0.503843,0.496531 -180 0 0 0.283412,0.4655 L 4.13,118.09 l 6.51,3.73 a 0.566823,0.558597 -180 0 0 0.755765,-0.1862 L 13.57,117.85 a 0.503843,0.496531 -180 0 0 -0.188941,-0.71376 L 5.73,112.76 A 0.566823,0.558597 0 0 1 5.478078,112.2945 L 5.48,77.66 A 0.566823,0.558597 0 0 1 5.731922,77.194502 L 13.38,72.82 a 0.503843,0.496531 -180 0 0 0.188941,-0.713763 L 11.4,68.32 A 0.566823,0.558597 -180 0 0 10.644235,68.133801 L 4.35,71.79 0.28,74.06 a 0.503843,0.496531 -180 0 0 -0.283412,0.465498 z"
   class="st1"
   id="path12"
   inkscape:connector-curvature="0"
   style="fill:#949494;stroke:none;stroke-width:34;stroke-linecap:butt" />
				</g>
				<g
   id="shape11209-5">
					<title
   id="title15">Sheet.11209</title>
					<path
   d="m 13.58,72.07 -2.17,-3.78 a 0.566823,0.558597 -180 0 0 -0.566823,-0.248265 0.346392,0.341365 -180 0 0 -0.251922,0 L 4.29,71.7 0.2,74.03 0.01,74.21 a 0.755765,0.744796 -180 0 0 0,0.248265 L 5.49,77.57 A 0.566823,0.558597 0 0 1 5.741922,77.104502 L 13.39,72.79 a 0.503843,0.496531 -180 0 0 0.188941,-0.713763 z m 0,45.75 -2.17,3.78 a 0.566823,0.558597 0 0 1 -0.566823,0.24826 0.346392,0.341365 0 0 1 -0.251922,0 L 4.29,118.19 0.2,115.86 0.01,115.68 a 0.755765,0.744796 0 0 1 0,-0.24826 L 5.49,112.32 a 0.566823,0.558597 -180 0 0 0.251922,0.4655 L 13.39,117.16 a 0.503843,0.496531 0 0 1 0.188941,0.6517 z"
   class="st2"
   id="path17"
   inkscape:connector-curvature="0"
   style="fill:#a3a3a3;stroke:none;stroke-width:34;stroke-linecap:butt" />
				</g>
				<g
   id="shape11210-7"
   transform="translate(43.054,-0.0303115)">
					<title
   id="title20">Sheet.11210</title>
					<path
   d="M 13.64,74.52 A 0.503843,0.496531 -180 0 0 13.356588,74.054502 L 9.51,71.86 3,68.13 A 0.566823,0.558597 -180 0 0 2.244235,68.316199 L 0.07,72.1 a 0.503843,0.496531 -180 0 0 0.188941,0.713763 L 7.91,77.19 a 0.566823,0.558597 0 0 1 0.251922,0.465498 L 8.16,112.29 a 0.566823,0.558597 0 0 1 -0.251922,0.4655 L 0.26,117.13 a 0.503843,0.496531 -180 0 0 -0.188941,0.71376 L 2.24,121.63 a 0.566823,0.558597 -180 0 0 0.755765,0.1862 L 9.29,118.16 l 3.97,-2.27 a 0.503843,0.496531 -180 0 0 0.283412,-0.4655 L 13.54,74.52 Z"
   class="st1"
   id="path22"
   inkscape:connector-curvature="0"
   style="fill:#949494;stroke:none;stroke-width:34;stroke-linecap:butt" />
				</g>
				<g
   id="shape11211-9"
   transform="translate(43.053)">
					<title
   id="title25">Sheet.11211</title>
					<path
   d="m 0.07,117.82 2.17,3.78 a 0.566823,0.558597 -180 0 0 0.566823,0.24826 0.346392,0.341365 -180 0 0 0.251922,0 L 9.36,118.19 l 3.96,-2.27 0.19,-0.18 a 0.755765,0.744796 -180 0 0 0,-0.24827 L 8.03,112.39 a 0.566823,0.558597 0 0 1 -0.251922,0.4655 L 0.13,117.23 a 0.503843,0.496531 -180 0 0 -0.0629804,0.58963 z m 0,-45.75 2.17,-3.78 a 0.566823,0.558597 0 0 1 0.566823,-0.248265 0.346392,0.341365 0 0 1 0.251922,0 L 9.36,71.7 l 3.96,2.27 0.19,0.18 a 0.755765,0.744796 0 0 1 0,0.248265 L 8.03,77.5 A 0.566823,0.558597 -180 0 0 7.778078,77.034502 L 0.26,72.79 A 0.503843,0.496531 0 0 1 0.071059,72.076237 Z"
   class="st2"
   id="path27"
   inkscape:connector-curvature="0"
   style="fill:#a3a3a3;stroke:none;stroke-width:34;stroke-linecap:butt" />
				</g>
				<g
   id="shape11212-11"
   transform="translate(9.61508,-13.8952)">
					<title
   id="title30">Sheet.11212</title>
					<path
   d="m 17.23,120.97 a 0.944706,0.930995 0 0 1 -0.976196,0.89996 L 1.01,121.87 A 0.944706,0.930995 0 0 1 0.00231,120.97004 L 0,96.61 A 0.944706,0.930995 0 0 1 1.00769,95.710038 L 16.25,95.71 a 0.944706,0.930995 0 0 1 0.976196,0.899962 z"
   class="st3"
   id="path32"
   inkscape:connector-curvature="0"
   style="fill:#999999;stroke:none;stroke-width:34;stroke-linecap:butt" />
				</g>
				<g
   id="shape11213-13"
   transform="translate(12.1658,-26.836)">
					<title
   id="title35">Sheet.11213</title>
					<path
   d="m 0,119.83 a 1.95239,1.92406 0 0 1 1.86,-2.02 h 8.56 a 1.98388,1.95509 0 0 1 1.89,2.02 1.98388,1.95509 0 0 1 -1.89,2.04 H 1.86 A 1.95239,1.92406 0 0 1 0,119.83 Z m 0,-6.02 a 1.98388,1.95509 0 0 1 1.86,-2.05 h 8.56 a 2.01537,1.98612 0 0 1 1.89,2.05 1.98388,1.95509 0 0 1 -1.89,2.01 H 1.86 A 1.95239,1.92406 0 0 1 0,113.81 Z"
   class="st4"
   id="path37"
   inkscape:connector-curvature="0"
   style="fill:#003067;stroke:none;stroke-width:34;stroke-linecap:butt" />
				</g>
				<g
   id="shape11214-15"
   transform="translate(13.1735,-33.5392)">
					<title
   id="title40">Sheet.11214</title>
					<ellipse
   cx="1.38557"
   cy="120.509"
   rx="1.38557"
   ry="1.36546"
   class="st5"
   id="ellipse42"
   style="fill:#50e6ff;stroke:none;stroke-width:34;stroke-linecap:butt" />
				</g>
				<g
   id="shape11215-17"
   transform="translate(13.1735,-27.5188)">
					<title
   id="title45">Sheet.11215</title>
					<ellipse
   cx="1.38557"
   cy="120.509"
   rx="1.38557"
   ry="1.36546"
   class="st5"
   id="ellipse47"
   style="fill:#50e6ff;stroke:none;stroke-width:34;stroke-linecap:butt" />
				</g>
				<g
   id="shape11216-19"
   transform="translate(30.2726,-13.8952)">
					<title
   id="title50">Sheet.11216</title>
					<path
   d="m 17.23,120.97 a 0.944706,0.930995 0 0 1 -1.00769,0.89996 L 1.01,121.87 A 0.944706,0.930995 0 0 1 0.00231,120.97004 L 0,96.61 A 0.944706,0.930995 0 0 1 1.00769,95.710038 L 16.22,95.71 a 0.944706,0.930995 0 0 1 1.00769,0.899962 z"
   class="st3"
   id="path52"
   inkscape:connector-curvature="0"
   style="fill:#999999;stroke:none;stroke-width:34;stroke-linecap:butt" />
				</g>
				<g
   id="shape11217-21"
   transform="translate(32.7604,-26.836)">
					<title
   id="title55">Sheet.11217</title>
					<path
   d="m 0.03,119.83 a 1.98388,1.95509 0 0 1 1.89,-2.02 h 8.57 a 1.98388,1.95509 0 0 1 1.89,2.02 1.98388,1.95509 0 0 1 -1.89,2.04 H 1.89 A 1.98388,1.95509 0 0 1 0,119.83 Z m 0,-6.02 a 2.01537,1.98612 0 0 1 1.89,-2.05 h 8.57 a 2.01537,1.98612 0 0 1 1.89,2.05 1.98388,1.95509 0 0 1 -1.89,2.01 H 1.89 A 1.98388,1.95509 0 0 1 0,113.81 Z"
   class="st4"
   id="path57"
   inkscape:connector-curvature="0"
   style="fill:#003067;stroke:none;stroke-width:34;stroke-linecap:butt" />
				</g>
				<g
   id="shape11218-23"
   transform="translate(33.831,-33.5392)">
					<title
   id="title60">Sheet.11218</title>
					<ellipse
   cx="1.38557"
   cy="120.509"
   rx="1.38557"
   ry="1.36546"
   class="st5"
   id="ellipse62"
   style="fill:#50e6ff;stroke:none;stroke-width:34;stroke-linecap:butt" />
				</g>
				<g
   id="shape11219-25"
   transform="translate(33.831,-27.5188)">
					<title
   id="title65">Sheet.11219</title>
					<ellipse
   cx="1.38557"
   cy="120.509"
   rx="1.38557"
   ry="1.36546"
   class="st5"
   id="ellipse67"
   style="fill:#50e6ff;stroke:none;stroke-width:34;stroke-linecap:butt" />
				</g>
			</g>
		</g>
	</g>
</svg>

<?xml version="1.0" encoding="UTF-8" standalone="no"?>
<!DOCTYPE svg PUBLIC "-//W3C//DTD SVG 1.1//EN" "http://www.w3.org/Graphics/SVG/1.1/DTD/svg11.dtd">
<!-- Generated by Microsoft Visio, SVG Export Proximity Placement Group.svg Page-1 -->
<svg xmlns="http://www.w3.org/2000/svg" xmlns:xlink="http://www.w3.org/1999/xlink" xmlns:ev="http://www.w3.org/2001/xml-events"
		width="1.73185in" height="1.69269in" viewBox="0 0 124.693 121.874" xml:space="preserve" color-interpolation-filters="sRGB"
		class="st6">
	<style type="text/css">
	<![CDATA[
		.st1 {fill:#949494;stroke:none;stroke-linecap:butt;stroke-width:34}
		.st2 {fill:#a3a3a3;stroke:none;stroke-linecap:butt;stroke-width:34}
		.st3 {fill:#999999;stroke:none;stroke-linecap:butt;stroke-width:34}
		.st4 {fill:#003067;stroke:none;stroke-linecap:butt;stroke-width:34}
		.st5 {fill:#50e6ff;stroke:none;stroke-linecap:butt;stroke-width:34}
		.st6 {fill:none;fill-rule:evenodd;font-size:12px;overflow:visible;stroke-linecap:square;stroke-miterlimit:3}
	]]>
	</style>

	<g>
		<title>Page-1</title>
		<g id="group10968-1" transform="translate(34,-34.0157)">
			<title>Proximity Placement Group.10968</title>
			<g id="group10969-2">
				<title> ProximityPlacementGroups</title>
				<g id="shape10970-3" transform="translate(0.0105707,-0.0303115)">
					<title>Sheet.10970</title>
					<path d="M0 115.43 a0.503843 0.496531 -180 0 0 0.283412 0.465498 L4.13 118.09 L10.64 121.82 a0.566823 0.558597
								 -180 0 0 0.755765 -0.186199 L13.57 117.85 a0.503843 0.496531 -180 0 0 -0.188941 -0.713763 L5.73
								 112.76 a0.566823 0.558597 0 0 1 -0.251922 -0.465498 L5.48 77.66 a0.566823 0.558597 0 0 1 0.251922
								 -0.465498 L13.38 72.82 a0.503843 0.496531 -180 0 0 0.188941 -0.713763 L11.4 68.32 a0.566823 0.558597
								 -180 0 0 -0.755765 -0.186199 L4.35 71.79 L0.28 74.06 a0.503843 0.496531 -180 0 0 -0.283412 0.465498
								 L0 115.43 Z" class="st1"/>
				</g>
				<g id="shape10971-5">
					<title>Sheet.10971</title>
					<path d="M13.58 72.07 L11.41 68.29 a0.566823 0.558597 -180 0 0 -0.566823 -0.248265 a0.346392 0.341365 -180 0
								 0 -0.251922 -5.68434E-14 L4.29 71.7 L0.2 74.03 L0.01 74.21 a0.755765 0.744796 -180 0 0 2.45359E-14
								 0.248265 L5.49 77.57 a0.566823 0.558597 0 0 1 0.251922 -0.465498 L13.39 72.79 a0.503843 0.496531
								 -180 0 0 0.188941 -0.713763 ZM13.58 117.82 L11.41 121.6 a0.566823 0.558597 0 0 1 -0.566823 0.248265
								 a0.346392 0.341365 0 0 1 -0.251922 -1.42109E-14 L4.29 118.19 L0.2 115.86 L0.01 115.68 a0.755765
								 0.744796 0 0 1 -6.66134E-16 -0.248265 L5.49 112.32 a0.566823 0.558597 -180 0 0 0.251922 0.465498
								 L13.39 117.16 a0.503843 0.496531 0 0 1 0.188941 0.651697 Z" class="st2"/>
				</g>
				<g id="shape10972-7" transform="translate(43.054,-0.0303115)">
					<title>Sheet.10972</title>
					<path d="M13.64 74.52 a0.503843 0.496531 -180 0 0 -0.283412 -0.465498 L9.51 71.86 L3 68.13 a0.566823 0.558597
								 -180 0 0 -0.755765 0.186199 L0.07 72.1 a0.503843 0.496531 -180 0 0 0.188941 0.713763 L7.91 77.19
								 a0.566823 0.558597 0 0 1 0.251922 0.465498 L8.16 112.29 a0.566823 0.558597 0 0 1 -0.251922 0.465498
								 L0.26 117.13 a0.503843 0.496531 -180 0 0 -0.188941 0.713763 L2.24 121.63 a0.566823 0.558597 -180
								 0 0 0.755765 0.186199 L9.29 118.16 L13.26 115.89 a0.503843 0.496531 -180 0 0 0.283412 -0.465498
								 L13.54 74.52 L13.64 74.52 Z" class="st1"/>
				</g>
				<g id="shape10973-9" transform="translate(43.053,1.42109E-14)">
					<title>Sheet.10973</title>
					<path d="M0.07 117.82 L2.24 121.6 a0.566823 0.558597 -180 0 0 0.566823 0.248265 a0.346392 0.341365 -180 0 0 0.251922
								 0 L9.36 118.19 L13.32 115.92 L13.51 115.74 a0.755765 0.744796 -180 0 0 -2.4869E-14 -0.248265 L8.03
								 112.39 a0.566823 0.558597 0 0 1 -0.251922 0.465498 L0.13 117.23 a0.503843 0.496531 -180 0 0 -0.0629804
								 0.58963 ZM0.07 72.07 L2.24 68.29 a0.566823 0.558597 0 0 1 0.566823 -0.248265 a0.346392 0.341365
								 0 0 1 0.251922 2.84217E-14 L9.36 71.7 L13.32 73.97 L13.51 74.15 a0.755765 0.744796 0 0 1 8.52651E-14
								 0.248265 L8.03 77.5 a0.566823 0.558597 -180 0 0 -0.251922 -0.465498 L0.26 72.79 a0.503843 0.496531
								 0 0 1 -0.188941 -0.713763 Z" class="st2"/>
				</g>
				<g id="shape10974-11" transform="translate(9.61508,-13.8952)">
					<title>Sheet.10974</title>
					<path d="M17.23 120.97 a0.944706 0.930995 0 0 1 -0.976196 0.899962 L1.01 121.87 a0.944706 0.930995 0 0 1 -1.00769
								 -0.899962 L0 96.61 a0.944706 0.930995 0 0 1 1.00769 -0.899962 L16.25 95.71 a0.944706 0.930995 0
								 0 1 0.976196 0.899962 L17.23 120.97 Z" class="st3"/>
				</g>
				<g id="shape10975-13" transform="translate(12.1658,-26.836)">
					<title>Sheet.10975</title>
					<path d="M0 119.83 A1.95239 1.92406 0 0 1 1.86 117.81 L10.42 117.81 A1.98388 1.95509 0 0 1 12.31 119.83 A1.98388
								 1.95509 0 0 1 10.42 121.87 L1.86 121.87 A1.95239 1.92406 0 0 1 0 119.83 ZM0 113.81 A1.98388 1.95509
								 0 0 1 1.86 111.76 L10.42 111.76 A2.01537 1.98612 0 0 1 12.31 113.81 A1.98388 1.95509 0 0 1 10.42
								 115.82 L1.86 115.82 A1.95239 1.92406 0 0 1 0 113.81 Z" class="st4"/>
				</g>
				<g id="shape10976-15" transform="translate(13.1735,-33.5392)">
					<title>Sheet.10976</title>
					<ellipse cx="1.38557" cy="120.509" rx="1.38557" ry="1.36546" class="st5"/>
				</g>
				<g id="shape10977-17" transform="translate(13.1735,-27.5188)">
					<title>Sheet.10977</title>
					<ellipse cx="1.38557" cy="120.509" rx="1.38557" ry="1.36546" class="st5"/>
				</g>
				<g id="shape10978-19" transform="translate(30.2726,-13.8952)">
					<title>Sheet.10978</title>
					<path d="M17.23 120.97 a0.944706 0.930995 0 0 1 -1.00769 0.899962 L1.01 121.87 a0.944706 0.930995 0 0 1 -1.00769
								 -0.899962 L0 96.61 a0.944706 0.930995 0 0 1 1.00769 -0.899962 L16.22 95.71 a0.944706 0.930995 0
								 0 1 1.00769 0.899962 L17.23 120.97 Z" class="st3"/>
				</g>
				<g id="shape10979-21" transform="translate(32.7604,-26.836)">
					<title>Sheet.10979</title>
					<path d="M0.03 119.83 A1.98388 1.95509 0 0 1 1.92 117.81 L10.49 117.81 A1.98388 1.95509 0 0 1 12.38 119.83 A1.98388
								 1.95509 0 0 1 10.49 121.87 L1.89 121.87 A1.98388 1.95509 0 0 1 -0 119.83 L0.03 119.83 ZM0.03 113.81
								 A2.01537 1.98612 0 0 1 1.92 111.76 L10.49 111.76 A2.01537 1.98612 0 0 1 12.38 113.81 A1.98388 1.95509
								 0 0 1 10.49 115.82 L1.89 115.82 A1.98388 1.95509 0 0 1 0 113.81 L0.03 113.81 Z" class="st4"/>
				</g>
				<g id="shape10980-23" transform="translate(33.831,-33.5392)">
					<title>Sheet.10980</title>
					<ellipse cx="1.38557" cy="120.509" rx="1.38557" ry="1.36546" class="st5"/>
				</g>
				<g id="shape10981-25" transform="translate(33.831,-27.5188)">
					<title>Sheet.10981</title>
					<ellipse cx="1.38557" cy="120.509" rx="1.38557" ry="1.36546" class="st5"/>
				</g>
			</g>
		</g>
	</g>
</svg>
